tests/test_data/luts/contrast_1.2_256.cube
TITLE "Contrast 1.2 1D"
DOMAIN_MIN 0.0 0.0 0.0
DOMAIN_MAX 1.0 1.0 1.0
LUT_1D_SIZE 256

# Contrast adjustment: 1.2

0.000000 0.000000 0.000000
0.000000 0.000000 0.000000
0.000000 0.000000 0.000000
0.000000 0.000000 0.000000
0.000000 0.000000 0.000000
0.000000 0.000000 0.000000
0.000000 0.000000 0.000000
0.000000 0.000000 0.000000
0.000000 0.000000 0.000000
0.000000 0.000000 0.000000
0.000000 0.000000 0.000000
0.000000 0.000000 0.000000
0.000000 0.000000 0.000000
0.000000 0.000000 0.000000
0.000000 0.000000 0.000000
0.000000 0.000000 0.000000
0.000000 0.000000 0.000000
0.000000 0.000000 0.000000
0.000000 0.000000 0.000000
0.000000 0.000000 0.000000
0.000000 0.000000 0.000000
0.000000 0.000000 0.000000
0.003529 0.003529 0.003529
0.008235 0.008235 0.008235
0.012941 0.012941 0.012941
0.017647 0.017647 0.017647
0.022353 0.022353 0.022353
0.027059 0.027059 0.027059
0.031765 0.031765 0.031765
0.036471 0.036471 0.036471
0.041176 0.041176 0.041176
0.045882 0.045882 0.045882
0.050588 0.050588 0.050588
0.055294 0.055294 0.055294
0.060000 0.060000 0.060000
0.064706 0.064706 0.064706
0.069412 0.069412 0.069412
0.074118 0.074118 0.074118
0.078824 0.078824 0.078824
0.083529 0.083529 0.083529
0.088235 0.088235 0.088235
0.092941 0.092941 0.092941
0.097647 0.097647 0.097647
0.102353 0.102353 0.102353
0.107059 0.107059 0.107059
0.111765 0.111765 0.111765
0.116471 0.116471 0.116471
0.121176 0.121176 0.121176
0.125882 0.125882 0.125882
0.130588 0.130588 0.130588
0.135294 0.135294 0.135294
0.140000 0.140000 0.140000
0.144706 0.144706 0.144706
0.149412 0.149412 0.149412
0.154118 0.154118 0.154118
0.158824 0.158824 0.158824
0.163529 0.163529 0.163529
0.168235 0.168235 0.168235
0.172941 0.172941 0.172941
0.177647 0.177647 0.177647
0.182353 0.182353 0.182353
0.187059 0.187059 0.187059
0.191765 0.191765 0.191765
0.196471 0.196471 0.196471
0.201176 0.201176 0.201176
0.205882 0.205882 0.205882
0.210588 0.210588 0.210588
0.215294 0.215294 0.215294
0.220000 0.220000 0.220000
0.224706 0.224706 0.224706
0.229412 0.229412 0.229412
0.234118 0.234118 0.234118
0.238824 0.238824 0.238824
0.243529 0.243529 0.243529
0.248235 0.248235 0.248235
0.252941 0.252941 0.252941
0.257647 0.257647 0.257647
0.262353 0.262353 0.262353
0.267059 0.267059 0.267059
0.271765 0.271765 0.271765
0.276471 0.276471 0.276471
0.281176 0.281176 0.281176
0.285882 0.285882 0.285882
0.290588 0.290588 0.290588
0.295294 0.295294 0.295294
0.300000 0.300000 0.300000
0.304706 0.304706 0.304706
0.309412 0.309412 0.309412
0.314118 0.314118 0.314118
0.318824 0.318824 0.318824
0.323529 0.323529 0.323529
0.328235 0.328235 0.328235
0.332941 0.332941 0.332941
0.337647 0.337647 0.337647
0.342353 0.342353 0.342353
0.347059 0.347059 0.347059
0.351765 0.351765 0.351765
0.356471 0.356471 0.356471
0.361176 0.361176 0.361176
0.365882 0.365882 0.365882
0.370588 0.370588 0.370588
0.375294 0.375294 0.375294
0.380000 0.380000 0.380000
0.384706 0.384706 0.384706
0.389412 0.389412 0.389412
0.394118 0.394118 0.394118
0.398824 0.398824 0.398824
0.403529 0.403529 0.403529
0.408235 0.408235 0.408235
0.412941 0.412941 0.412941
0.417647 0.417647 0.417647
0.422353 0.422353 0.422353
0.427059 0.427059 0.427059
0.431765 0.431765 0.431765
0.436471 0.436471 0.436471
0.441176 0.441176 0.441176
0.445882 0.445882 0.445882
0.450588 0.450588 0.450588
0.455294 0.455294 0.455294
0.460000 0.460000 0.460000
0.464706 0.464706 0.464706
0.469412 0.469412 0.469412
0.474118 0.474118 0.474118
0.478824 0.478824 0.478824
0.483529 0.483529 0.483529
0.488235 0.488235 0.488235
0.492941 0.492941 0.492941
0.497647 0.497647 0.497647
0.502353 0.502353 0.502353
0.507059 0.507059 0.507059
0.511765 0.511765 0.511765
0.516471 0.516471 0.516471
0.521176 0.521176 0.521176
0.525882 0.525882 0.525882
0.530588 0.530588 0.530588
0.535294 0.535294 0.535294
0.540000 0.540000 0.540000
0.544706 0.544706 0.544706
0.549412 0.549412 0.549412
0.554118 0.554118 0.554118
0.558824 0.558824 0.558824
0.563529 0.563529 0.563529
0.568235 0.568235 0.568235
0.572941 0.572941 0.572941
0.577647 0.577647 0.577647
0.582353 0.582353 0.582353
0.587059 0.587059 0.587059
0.591765 0.591765 0.591765
0.596471 0.596471 0.596471
0.601176 0.601176 0.601176
0.605882 0.605882 0.605882
0.610588 0.610588 0.610588
0.615294 0.615294 0.615294
0.620000 0.620000 0.620000
0.624706 0.624706 0.624706
0.629412 0.629412 0.629412
0.634118 0.634118 0.634118
0.638824 0.638824 0.638824
0.643529 0.643529 0.643529
0.648235 0.648235 0.648235
0.652941 0.652941 0.652941
0.657647 0.657647 0.657647
0.662353 0.662353 0.662353
0.667059 0.667059 0.667059
0.671765 0.671765 0.671765
0.676471 0.676471 0.676471
0.681176 0.681176 0.681176
0.685882 0.685882 0.685882
0.690588 0.690588 0.690588
0.695294 0.695294 0.695294
0.700000 0.700000 0.700000
0.704706 0.704706 0.704706
0.709412 0.709412 0.709412
0.714118 0.714118 0.714118
0.718824 0.718824 0.718824
0.723529 0.723529 0.723529
0.728235 0.728235 0.728235
0.732941 0.732941 0.732941
0.737647 0.737647 0.737647
0.742353 0.742353 0.742353
0.747059 0.747059 0.747059
0.751765 0.751765 0.751765
0.756471 0.756471 0.756471
0.761176 0.761176 0.761176
0.765882 0.765882 0.765882
0.770588 0.770588 0.770588
0.775294 0.775294 0.775294
0.780000 0.780000 0.780000
0.784706 0.784706 0.784706
0.789412 0.789412 0.789412
0.794118 0.794118 0.794118
0.798824 0.798824 0.798824
0.803529 0.803529 0.803529
0.808235 0.808235 0.808235
0.812941 0.812941 0.812941
0.817647 0.817647 0.817647
0.822353 0.822353 0.822353
0.827059 0.827059 0.827059
0.831765 0.831765 0.831765
0.836471 0.836471 0.836471
0.841176 0.841176 0.841176
0.845882 0.845882 0.845882
0.850588 0.850588 0.850588
0.855294 0.855294 0.855294
0.860000 0.860000 0.860000
0.864706 0.864706 0.864706
0.869412 0.869412 0.869412
0.874118 0.874118 0.874118
0.878824 0.878824 0.878824
0.883529 0.883529 0.883529
0.888235 0.888235 0.888235
0.892941 0.892941 0.892941
0.897647 0.897647 0.897647
0.902353 0.902353 0.902353
0.907059 0.907059 0.907059
0.911765 0.911765 0.911765
0.916471 0.916471 0.916471
0.921176 0.921176 0.921176
0.925882 0.925882 0.925882
0.930588 0.930588 0.930588
0.935294 0.935294 0.935294
0.940000 0.940000 0.940000
0.944706 0.944706 0.944706
0.949412 0.949412 0.949412
0.954118 0.954118 0.954118
0.958824 0.958824 0.958824
0.963529 0.963529 0.963529
0.968235 0.968235 0.968235
0.972941 0.972941 0.972941
0.977647 0.977647 0.977647
0.982353 0.982353 0.982353
0.987059 0.987059 0.987059
0.991765 0.991765 0.991765
0.996471 0.996471 0.996471
1.000000 1.000000 1.000000
1.000000 1.000000 1.000000
1.000000 1.000000 1.000000
1.000000 1.000000 1.000000
1.000000 1.000000 1.000000
1.000000 1.000000 1.000000
1.000000 1.000000 1.000000
1.000000 1.000000 1.000000
1.000000 1.000000 1.000000
1.000000 1.000000 1.000000
1.000000 1.000000 1.000000
1.000000 1.000000 1.000000
1.000000 1.000000 1.000000
1.000000 1.000000 1.000000
1.000000 1.000000 1.000000
1.000000 1.000000 1.000000
1.000000 1.000000 1.000000
1.000000 1.000000 1.000000
1.000000 1.000000 1.000000
1.000000 1.000000 1.000000
1.000000 1.000000 1.000000
1.000000 1.000000 1.000000
