tests/test_data/luts/contrast_0.8_256.cube
TITLE "Contrast 0.8 1D"
DOMAIN_MIN 0.0 0.0 0.0
DOMAIN_MAX 1.0 1.0 1.0
LUT_1D_SIZE 256

# Contrast adjustment: 0.8

0.100000 0.100000 0.100000
0.103137 0.103137 0.103137
0.106275 0.106275 0.106275
0.109412 0.109412 0.109412
0.112549 0.112549 0.112549
0.115686 0.115686 0.115686
0.118824 0.118824 0.118824
0.121961 0.121961 0.121961
0.125098 0.125098 0.125098
0.128235 0.128235 0.128235
0.131373 0.131373 0.131373
0.134510 0.134510 0.134510
0.137647 0.137647 0.137647
0.140784 0.140784 0.140784
0.143922 0.143922 0.143922
0.147059 0.147059 0.147059
0.150196 0.150196 0.150196
0.153333 0.153333 0.153333
0.156471 0.156471 0.156471
0.159608 0.159608 0.159608
0.162745 0.162745 0.162745
0.165882 0.165882 0.165882
0.169020 0.169020 0.169020
0.172157 0.172157 0.172157
0.175294 0.175294 0.175294
0.178431 0.178431 0.178431
0.181569 0.181569 0.181569
0.184706 0.184706 0.184706
0.187843 0.187843 0.187843
0.190980 0.190980 0.190980
0.194118 0.194118 0.194118
0.197255 0.197255 0.197255
0.200392 0.200392 0.200392
0.203529 0.203529 0.203529
0.206667 0.206667 0.206667
0.209804 0.209804 0.209804
0.212941 0.212941 0.212941
0.216078 0.216078 0.216078
0.219216 0.219216 0.219216
0.222353 0.222353 0.222353
0.225490 0.225490 0.225490
0.228627 0.228627 0.228627
0.231765 0.231765 0.231765
0.234902 0.234902 0.234902
0.238039 0.238039 0.238039
0.241176 0.241176 0.241176
0.244314 0.244314 0.244314
0.247451 0.247451 0.247451
0.250588 0.250588 0.250588
0.253725 0.253725 0.253725
0.256863 0.256863 0.256863
0.260000 0.260000 0.260000
0.263137 0.263137 0.263137
0.266275 0.266275 0.266275
0.269412 0.269412 0.269412
0.272549 0.272549 0.272549
0.275686 0.275686 0.275686
0.278824 0.278824 0.278824
0.281961 0.281961 0.281961
0.285098 0.285098 0.285098
0.288235 0.288235 0.288235
0.291373 0.291373 0.291373
0.294510 0.294510 0.294510
0.297647 0.297647 0.297647
0.300784 0.300784 0.300784
0.303922 0.303922 0.303922
0.307059 0.307059 0.307059
0.310196 0.310196 0.310196
0.313333 0.313333 0.313333
0.316471 0.316471 0.316471
0.319608 0.319608 0.319608
0.322745 0.322745 0.322745
0.325882 0.325882 0.325882
0.329020 0.329020 0.329020
0.332157 0.332157 0.332157
0.335294 0.335294 0.335294
0.338431 0.338431 0.338431
0.341569 0.341569 0.341569
0.344706 0.344706 0.344706
0.347843 0.347843 0.347843
0.350980 0.350980 0.350980
0.354118 0.354118 0.354118
0.357255 0.357255 0.357255
0.360392 0.360392 0.360392
0.363529 0.363529 0.363529
0.366667 0.366667 0.366667
0.369804 0.369804 0.369804
0.372941 0.372941 0.372941
0.376078 0.376078 0.376078
0.379216 0.379216 0.379216
0.382353 0.382353 0.382353
0.385490 0.385490 0.385490
0.388627 0.388627 0.388627
0.391765 0.391765 0.391765
0.394902 0.394902 0.394902
0.398039 0.398039 0.398039
0.401176 0.401176 0.401176
0.404314 0.404314 0.404314
0.407451 0.407451 0.407451
0.410588 0.410588 0.410588
0.413725 0.413725 0.413725
0.416863 0.416863 0.416863
0.420000 0.420000 0.420000
0.423137 0.423137 0.423137
0.426275 0.426275 0.426275
0.429412 0.429412 0.429412
0.432549 0.432549 0.432549
0.435686 0.435686 0.435686
0.438824 0.438824 0.438824
0.441961 0.441961 0.441961
0.445098 0.445098 0.445098
0.448235 0.448235 0.448235
0.451373 0.451373 0.451373
0.454510 0.454510 0.454510
0.457647 0.457647 0.457647
0.460784 0.460784 0.460784
0.463922 0.463922 0.463922
0.467059 0.467059 0.467059
0.470196 0.470196 0.470196
0.473333 0.473333 0.473333
0.476471 0.476471 0.476471
0.479608 0.479608 0.479608
0.482745 0.482745 0.482745
0.485882 0.485882 0.485882
0.489020 0.489020 0.489020
0.492157 0.492157 0.492157
0.495294 0.495294 0.495294
0.498431 0.498431 0.498431
0.501569 0.501569 0.501569
0.504706 0.504706 0.504706
0.507843 0.507843 0.507843
0.510980 0.510980 0.510980
0.514118 0.514118 0.514118
0.517255 0.517255 0.517255
0.520392 0.520392 0.520392
0.523529 0.523529 0.523529
0.526667 0.526667 0.526667
0.529804 0.529804 0.529804
0.532941 0.532941 0.532941
0.536078 0.536078 0.536078
0.539216 0.539216 0.539216
0.542353 0.542353 0.542353
0.545490 0.545490 0.545490
0.548627 0.548627 0.548627
0.551765 0.551765 0.551765
0.554902 0.554902 0.554902
0.558039 0.558039 0.558039
0.561176 0.561176 0.561176
0.564314 0.564314 0.564314
0.567451 0.567451 0.567451
0.570588 0.570588 0.570588
0.573725 0.573725 0.573725
0.576863 0.576863 0.576863
0.580000 0.580000 0.580000
0.583137 0.583137 0.583137
0.586275 0.586275 0.586275
0.589412 0.589412 0.589412
0.592549 0.592549 0.592549
0.595686 0.595686 0.595686
0.598824 0.598824 0.598824
0.601961 0.601961 0.601961
0.605098 0.605098 0.605098
0.608235 0.608235 0.608235
0.611373 0.611373 0.611373
0.614510 0.614510 0.614510
0.617647 0.617647 0.617647
0.620784 0.620784 0.620784
0.623922 0.623922 0.623922
0.627059 0.627059 0.627059
0.630196 0.630196 0.630196
0.633333 0.633333 0.633333
0.636471 0.636471 0.636471
0.639608 0.639608 0.639608
0.642745 0.642745 0.642745
0.645882 0.645882 0.645882
0.649020 0.649020 0.649020
0.652157 0.652157 0.652157
0.655294 0.655294 0.655294
0.658431 0.658431 0.658431
0.661569 0.661569 0.661569
0.664706 0.664706 0.664706
0.667843 0.667843 0.667843
0.670980 0.670980 0.670980
0.674118 0.674118 0.674118
0.677255 0.677255 0.677255
0.680392 0.680392 0.680392
0.683529 0.683529 0.683529
0.686667 0.686667 0.686667
0.689804 0.689804 0.689804
0.692941 0.692941 0.692941
0.696078 0.696078 0.696078
0.699216 0.699216 0.699216
0.702353 0.702353 0.702353
0.705490 0.705490 0.705490
0.708627 0.708627 0.708627
0.711765 0.711765 0.711765
0.714902 0.714902 0.714902
0.718039 0.718039 0.718039
0.721176 0.721176 0.721176
0.724314 0.724314 0.724314
0.727451 0.727451 0.727451
0.730588 0.730588 0.730588
0.733725 0.733725 0.733725
0.736863 0.736863 0.736863
0.740000 0.740000 0.740000
0.743137 0.743137 0.743137
0.746275 0.746275 0.746275
0.749412 0.749412 0.749412
0.752549 0.752549 0.752549
0.755686 0.755686 0.755686
0.758824 0.758824 0.758824
0.761961 0.761961 0.761961
0.765098 0.765098 0.765098
0.768235 0.768235 0.768235
0.771373 0.771373 0.771373
0.774510 0.774510 0.774510
0.777647 0.777647 0.777647
0.780784 0.780784 0.780784
0.783922 0.783922 0.783922
0.787059 0.787059 0.787059
0.790196 0.790196 0.790196
0.793333 0.793333 0.793333
0.796471 0.796471 0.796471
0.799608 0.799608 0.799608
0.802745 0.802745 0.802745
0.805882 0.805882 0.805882
0.809020 0.809020 0.809020
0.812157 0.812157 0.812157
0.815294 0.815294 0.815294
0.818431 0.818431 0.818431
0.821569 0.821569 0.821569
0.824706 0.824706 0.824706
0.827843 0.827843 0.827843
0.830980 0.830980 0.830980
0.834118 0.834118 0.834118
0.837255 0.837255 0.837255
0.840392 0.840392 0.840392
0.843529 0.843529 0.843529
0.846667 0.846667 0.846667
0.849804 0.849804 0.849804
0.852941 0.852941 0.852941
0.856078 0.856078 0.856078
0.859216 0.859216 0.859216
0.862353 0.862353 0.862353
0.865490 0.865490 0.865490
0.868627 0.868627 0.868627
0.871765 0.871765 0.871765
0.874902 0.874902 0.874902
0.878039 0.878039 0.878039
0.881176 0.881176 0.881176
0.884314 0.884314 0.884314
0.887451 0.887451 0.887451
0.890588 0.890588 0.890588
0.893725 0.893725 0.893725
0.896863 0.896863 0.896863
0.900000 0.900000 0.900000
